actions/16/jockey-certified.svg

<?xml version="1.0" encoding="UTF-8" standalone="no"?>
<!-- Created with Inkscape (http://www.inkscape.org/) -->

<svg
   xmlns:dc="http://purl.org/dc/elements/1.1/"
   xmlns:cc="http://creativecommons.org/ns#"
   xmlns:rdf="http://www.w3.org/1999/02/22-rdf-syntax-ns#"
   xmlns:svg="http://www.w3.org/2000/svg"
   xmlns="http://www.w3.org/2000/svg"
   xmlns:sodipodi="http://sodipodi.sourceforge.net/DTD/sodipodi-0.dtd"
   xmlns:inkscape="http://www.inkscape.org/namespaces/inkscape"
   width="16"
   height="16"
   id="svg27665"
   version="1.1"
   inkscape:version="0.48.3.1 r9886"
   sodipodi:docname="jockey-certified.svg">
  <defs
     id="defs27667" />
  <sodipodi:namedview
     id="base"
     pagecolor="#ffffff"
     bordercolor="#666666"
     borderopacity="1.0"
     inkscape:pageopacity="0.0"
     inkscape:pageshadow="2"
     inkscape:zoom="45.254834"
     inkscape:cx="6.2636637"
     inkscape:cy="6.4819632"
     inkscape:document-units="px"
     inkscape:current-layer="layer1"
     showgrid="true"
     inkscape:window-width="1920"
     inkscape:window-height="1032"
     inkscape:window-x="-7"
     inkscape:window-y="25"
     inkscape:window-maximized="1"
     inkscape:snap-bbox="true"
     inkscape:bbox-paths="true"
     inkscape:bbox-nodes="true"
     inkscape:snap-bbox-edge-midpoints="true"
     inkscape:snap-bbox-midpoints="true"
     inkscape:object-paths="true"
     inkscape:snap-intersection-paths="true"
     inkscape:object-nodes="true"
     inkscape:snap-smooth-nodes="true"
     inkscape:snap-midpoints="true"
     inkscape:snap-object-midpoints="true"
     inkscape:snap-center="true"
     inkscape:snap-global="true"
     showguides="false"
     inkscape:guide-bbox="true"
     fit-margin-top="0"
     fit-margin-left="0"
     fit-margin-right="0"
     fit-margin-bottom="0"
     inkscape:showpageshadow="false">
    <sodipodi:guide
       orientation="0,1"
       position="599.99999,299.99993"
       id="guide3572" />
    <sodipodi:guide
       orientation="1,0"
       position="294.41949,12.121716"
       id="guide3574" />
    <sodipodi:guide
       orientation="0,1"
       position="456.04389,599.99992"
       id="guide3576" />
    <sodipodi:guide
       orientation="0,1"
       position="-2.8882813e-06,-8.4406273e-05"
       id="guide3578" />
    <sodipodi:guide
       orientation="1,0"
       position="-2.8882813e-06,157.58366"
       id="guide3580" />
    <sodipodi:guide
       orientation="1,0"
       position="599.99999,121.21821"
       id="guide3582" />
    <sodipodi:guide
       orientation="0,1"
       position="599.99999,-714.34359"
       id="guide5928" />
    <sodipodi:guide
       orientation="0,1"
       position="599.99999,-414.34359"
       id="guide5930" />
    <sodipodi:guide
       orientation="0,1"
       position="599.99999,-1014.3435"
       id="guide5932" />
    <sodipodi:guide
       orientation="0,1"
       position="451.57029,524.99606"
       id="guide5294" />
    <sodipodi:guide
       orientation="0,1"
       position="451.57029,75.013516"
       id="guide5296" />
    <sodipodi:guide
       orientation="0,1"
       position="496.01499,-931.36409"
       id="guide5413" />
    <sodipodi:guide
       orientation="0,1"
       position="457.34859,-489.34389"
       id="guide5415" />
    <inkscape:grid
       type="xygrid"
       id="grid3070"
       empspacing="5"
       visible="true"
       enabled="true"
       snapvisiblegridlinesonly="true"
       originx="4.3243213e-05px"
       originy="-2.6947047e-05px" />
  </sodipodi:namedview>
  <metadata
     id="metadata27670">
    <rdf:RDF>
      <cc:Work
         rdf:about="">
        <dc:format>image/svg+xml</dc:format>
        <dc:type
           rdf:resource="http://purl.org/dc/dcmitype/StillImage" />
        <dc:title />
      </cc:Work>
    </rdf:RDF>
  </metadata>
  <g
     inkscape:label="Camada 1"
     inkscape:groupmode="layer"
     id="layer1"
     transform="translate(3364.4171,-2100.7186)">
    <path
       style="font-size:medium;font-style:normal;font-variant:normal;font-weight:normal;font-stretch:normal;text-indent:0;text-align:start;text-decoration:none;line-height:normal;letter-spacing:normal;word-spacing:normal;text-transform:none;direction:ltr;block-progression:tb;writing-mode:lr-tb;text-anchor:start;baseline-shift:baseline;color:#000000;fill:#485462;fill-opacity:0.7;fill-rule:nonzero;stroke:none;stroke-width:2;marker:none;visibility:visible;display:inline;overflow:visible;enable-background:accumulate;font-family:Sans;-inkscape-font-specification:Sans"
       d="m 7.999998,-1.3164254 c 0,0 -0.2402922,0.010713 -0.326626,0.032663 -0.086752,0.027175 -0.1420432,0.066632 -0.1959757,0.097988 -0.107865,0.061667 -0.1827538,0.119519 -0.2286382,0.163313 -0.091978,0.0877971 -0.098249,0.14988222 -0.1306505,0.19597569 -0.063757,0.0919779 -0.096159,0.16299948 -0.1306504,0.22863826 C 6.919519,-0.4665705 6.8292657,-0.33649493 6.7588189,-0.17323415 6.61803,0.15307837 6.4648032,0.5598193 6.3015424,0.96995714 6.1819711,1.2702441 6.0783915,1.530552 5.9749163,1.7865223 5.7092256,1.7060417 5.4376818,1.6214847 5.1256885,1.5252215 4.7048896,1.3953027 4.2916162,1.2933953 3.9498346,1.1985954 3.7789439,1.1515612 3.6374233,1.0972107 3.4925581,1.067945 3.4204391,1.0533121 3.3435121,1.0425988 3.2312573,1.0352824 c -0.056441,0 -0.1350403,-0.016723 -0.2613009,0 -0.062712,0.010452 -0.1454923,0.019336 -0.2613009,0.065325 -0.057486,0.022994 -0.120721,0.046773 -0.1959756,0.097988 -0.075255,0.05017 -0.2279066,0.2278021 -0.2286383,0.2286382 -6.271e-4,8.362e-4 -0.1308072,0.2100337 -0.163313,0.2939635 -0.032401,0.083616 -0.055918,0.1348313 -0.065325,0.1959757 -0.019859,0.1220797 -0.010452,0.1981705 0,0.2613008 0.010452,0.1260516 0.016984,0.2074729 0.032663,0.2613009 0.032401,0.1075514 0.067677,0.1612226 0.097988,0.2286383 C 2.2456304,2.803244 2.3319119,2.9366642 2.4146921,3.0930267 2.5804613,3.4055425 2.7859483,3.7890799 3.002619,4.1708927 3.1666114,4.459787 3.3230784,4.7100087 3.4598955,4.9547953 3.228801,5.1191013 2.9846938,5.2838254 2.7086555,5.4773971 2.3478513,5.7304408 1.9808281,5.9840072 1.6961147,6.1959744 1.5538625,6.3019581 1.4487673,6.3936747 1.336826,6.4899379 1.2814302,6.5380173 1.2155824,6.5704708 1.1408503,6.6532509 1.103223,6.6950591 1.0739573,6.741048 1.0101999,6.8492266 0.97884381,6.9035772 0.9150864,6.9926285 0.87954948,7.1105275 c -0.0177685,0.058531 -0.0253462,0.1066107 -0.0326626,0.1959756 -0.010452,0.088842 0.0326626,0.3255809 0.0326626,0.3266261 l 0,0.032663 c 0.0125424,0.036582 0.0561797,0.1908541 0.0979878,0.2613009 0.045989,0.07839 0.12129592,0.1500912 0.16331302,0.1959756 0.084661,0.091978 0.1428794,0.1282987 0.1959757,0.163313 0.1061927,0.070029 0.1437155,0.1098509 0.1959756,0.1306505 0.1045204,0.041808 0.1897045,0.047557 0.2613009,0.065325 0.1431929,0.036582 0.2828321,0.065587 0.4572765,0.097988 0.3488889,0.063757 0.8060609,0.1298143 1.2411791,0.1959757 0.3253719,0.049124 0.6063748,0.086752 0.8818904,0.13065 C 4.3744485,8.9759543 4.504,8.9295 4.5,9 L 4,9 l 0,1 0,6 0,1.875 1.5625,-1.03125 2.4375432,-1.125 2.4374568,1.125 L 12,17.875 12,16 12,10 12,9 11.5,9 c 0,-0.071 0.129728,-0.024359 0.125548,-0.093029 0.27562,-0.043898 0.556518,-0.081526 0.88189,-0.1306504 0.435118,-0.065848 0.89229,-0.1327409 1.241179,-0.1959757 0.174445,-0.031356 0.314084,-0.061406 0.457277,-0.097988 0.07212,-0.017769 0.156885,-0.024562 0.2613,-0.065325 0.05226,-0.020904 0.08989,-0.060622 0.195976,-0.1306505 0.05331,-0.035537 0.111837,-0.072171 0.195976,-0.163313 0.04181,-0.045989 0.117637,-0.1177944 0.163313,-0.1959756 0.04599,-0.07839 0.09799,-0.2929183 0.09799,-0.2939635 2.09e-4,0 0.03998,-0.2372612 0.03266,-0.3266261 C 15.142659,7.2166162 15.138219,7.169477 15.120449,7.1105276 15.08491,6.9926285 15.022197,6.9034727 14.989796,6.8492266 14.926039,6.7407345 14.896773,6.6947455 14.859146,6.6532509 14.783891,6.5696347 14.719088,6.5380173 14.66317,6.4899379 14.551229,6.3937792 14.446238,6.3019581 14.303881,6.1959744 14.019273,5.9840072 13.652145,5.7304408 13.291341,5.4773971 13.015302,5.2838254 12.7713,5.1191013 12.540101,4.9547953 12.677022,4.7100087 12.833489,4.459787 12.997377,4.1708927 c 0.216775,-0.3818128 0.422262,-0.7653502 0.587927,-1.077866 0.08257,-0.1563625 0.168853,-0.2897827 0.228638,-0.4246139 0.03031,-0.066893 0.06559,-0.1210869 0.09799,-0.2286383 0.01568,-0.053305 0.02221,-0.1352493 0.03266,-0.2613009 0.01045,-0.062712 0.01986,-0.1392211 0,-0.2613008 -0.01045,-0.060622 -0.03292,-0.1121504 -0.06532,-0.1959757 -0.0324,-0.083616 -0.162582,-0.2931273 -0.163314,-0.2939635 -6.27e-4,-8.361e-4 -0.153383,-0.1780504 -0.228638,-0.2286382 -0.07525,-0.05017 -0.138071,-0.074993 -0.195975,-0.097988 -0.115809,-0.045989 -0.198171,-0.056964 -0.261301,-0.065325 -0.126261,-0.016723 -0.205174,0 -0.261301,0 -0.112255,0.010452 -0.188868,0.01803 -0.261301,0.032663 -0.144865,0.029266 -0.286386,0.083616 -0.457277,0.1306504 C 11.70838,1.2937089 11.295106,1.3953027 10.874308,1.5252215 10.562314,1.6213802 10.29077,1.7062507 10.02508,1.7865223 9.9216046,1.530552 9.8180249,1.2702441 9.6984537,0.96995714 9.5351929,0.5598193 9.3819661,0.15307837 9.2411772,-0.17323415 9.1711485,-0.33649493 9.0804771,-0.4665705 9.0125389,-0.59784805 8.9790924,-0.66369587 8.9456459,-0.73440388 8.8818885,-0.82648631 8.8505324,-0.87247526 8.8432159,-0.93508295 8.751238,-1.022462 8.7052491,-1.0663605 8.6304648,-1.1248396 8.5225998,-1.185775 8.4682492,-1.2160859 8.4129579,-1.2565875 8.3266241,-1.2837628 8.2398722,-1.3109381 8.0011478,-1.3164254 7.999998,-1.3164254 z M 8,0 C 8.1375,0 9.2511,3.09625 9.375,3.15625 9.4989,3.21585 12.6015,2.1425 12.6875,2.25 c 0.0857,0.1075 -1.62375,2.89715 -1.59375,3.03125 0.0306,0.134 2.781,1.9284 2.75,2.0625 -0.0305,0.134 -3.289,0.5175 -3.375,0.625 C 10.42075,8.02915 10.5015,9.0722 10.5625,10 L 11,10 l 0,6 -3,-2 -3,2 0,-6 0.4375,0 c 0.062,-0.9278 0.14175,-1.97125 0.09375,-2.03125 -0.0857,-0.1075 -3.344,-0.491 -3.375,-0.625 -0.0305,-0.1341 2.72,-1.9285 2.75,-2.0625 C 4.93685,5.14715 3.2265,2.3575 3.3125,2.25 3.3982,2.1425 6.5011,3.21625 6.625,3.15625 6.7489,3.09655 7.8625,0 8,0 z M 8,5 C 7.4446,5 7,5.4446 7,6 7,6.5554 7.4446,7 8,7 8.5554,7 9,6.5554 9,6 9,5.4446 8.5554,5 8,5 z M 8,9.15625 C 7.9449,9.15625 7.50835,9.5589 7.03125,10 l 1.9375,0 C 8.49175,9.5589 8.055,9.15625 8,9.15625 z"
       transform="translate(-3364.4171,2100.7186)"
       id="rect3018"
       inkscape:connector-curvature="0"
       sodipodi:nodetypes="ccccccccccccccccccccccccccccccccscccsccccccccccccccccccccccccccccscccccccccccccccsscscccccccccccscccccccccccccccccsssssssccs" />
    <path
       sodipodi:nodetypes="cccccc"
       inkscape:connector-curvature="0"
       id="path3773"
       d="m -3359.4171,2110.7186 5.9998,0 2e-4,5.9999 -3.0001,-1.9999 -2.9997,1.9999 z"
       style="color:#000000;fill:#EDEFF3;fill-opacity:0.758;fill-rule:nonzero;stroke:none;stroke-width:70.8082428;marker:none;visibility:visible;display:inline;overflow:visible;enable-background:accumulate" />
    <path
       sodipodi:nodetypes="ssssssssssssssssssss"
       inkscape:connector-curvature="0"
       id="path3775"
       d="m -3356.4171,2100.7186 c -0.1375,0 -1.2511,3.0966 -1.375,3.1563 -0.1239,0.06 -3.2268,-1.0138 -3.3125,-0.9063 -0.086,0.1075 1.6243,2.8972 1.5937,3.0313 -0.03,0.134 -2.7805,1.9284 -2.75,2.0625 0.031,0.134 3.2893,0.5175 3.375,0.625 0.086,0.1074 -0.2488,3.3778 -0.125,3.4375 0.1239,0.06 2.4563,-2.25 2.5938,-2.25 0.1375,0 2.4699,2.3096 2.5937,2.25 0.1239,-0.06 -0.2107,-3.3301 -0.125,-3.4375 0.086,-0.1075 3.3445,-0.491 3.375,-0.625 0.031,-0.1341 -2.7194,-1.9285 -2.75,-2.0625 -0.03,-0.1341 1.6795,-2.9238 1.5938,-3.0313 -0.086,-0.1075 -3.1886,0.9659 -3.3125,0.9063 -0.1239,-0.06 -1.2375,-3.1563 -1.375,-3.1563 z m 0,4.9944 c 0.5554,0 1.0056,0.4502 1.0056,1.0056 0,0.5554 -0.4502,1.0056 -1.0056,1.0056 -0.5554,0 -1.0056,-0.4502 -1.0056,-1.0056 0,-0.5554 0.4502,-1.0056 1.0056,-1.0056 z"
       style="color:#000000;fill:#EDEFF3;fill-opacity:0.758;fill-rule:nonzero;stroke:none;stroke-width:57.8928833;marker:none;visibility:visible;display:inline;overflow:visible;enable-background:accumulate" />
  </g>
</svg>

<?xml version="1.0" encoding="UTF-8"?>
<svg id="c" width="16" height="16" version="1.1" xmlns="http://www.w3.org/2000/svg" xmlns:cc="http://creativecommons.org/ns#" xmlns:dc="http://purl.org/dc/elements/1.1/" xmlns:rdf="http://www.w3.org/1999/02/22-rdf-syntax-ns#">
	<metadata id="e">
		<rdf:RDF>
			<cc:Work rdf:about="">
				<dc:format>image/svg+xml</dc:format>
				<dc:type rdf:resource="http://purl.org/dc/dcmitype/StillImage"/>
				<dc:title/>
			</cc:Work>
		</rdf:RDF>
	</metadata>
	<defs>
		<style id="current-color-scheme" type="text/css">.ColorScheme-Text {color:#090d11;}.ColorScheme-Background{color:#ffffff;}</style>
	</defs>
	<g>
		<path id="f" d="m8-1.3164s-0.24029 0.010713-0.32663 0.032663c-0.086752 0.027175-0.14204 0.066632-0.19598 0.097988-0.10786 0.061667-0.18275 0.11952-0.22864 0.16331-0.091978 0.087797-0.098249 0.14988-0.13065 0.19598-0.063757 0.091978-0.096159 0.163-0.13065 0.22864-0.067938 0.13128-0.15819 0.26135-0.22864 0.42461-0.14079 0.32631-0.29402 0.73305-0.45728 1.1432-0.11957 0.30029-0.22315 0.56059-0.32663 0.81657-0.26569-0.080481-0.53723-0.16504-0.84923-0.2613-0.4208-0.12992-0.83407-0.23183-1.1759-0.32663-0.17089-0.047034-0.31241-0.10138-0.45728-0.13065-0.072119-0.014633-0.14905-0.025346-0.2613-0.032663-0.056441 0-0.13504-0.016723-0.2613 0-0.062712 0.010452-0.14549 0.019336-0.2613 0.065325-0.057486 0.022994-0.12072 0.046773-0.19598 0.097988-0.075255 0.05017-0.22791 0.2278-0.22864 0.22864-6.271e-4 8.362e-4 -0.13081 0.21003-0.16331 0.29396-0.032401 0.083616-0.055918 0.13483-0.065325 0.19598-0.019859 0.12208-0.010452 0.19817 0 0.2613 0.010452 0.12605 0.016984 0.20747 0.032663 0.2613 0.032401 0.10755 0.067677 0.16122 0.097988 0.22864 0.059576 0.13483 0.14586 0.26825 0.22864 0.42461 0.16577 0.31252 0.37126 0.69605 0.58793 1.0779 0.16399 0.28889 0.32046 0.53912 0.45728 0.7839-0.23109 0.16431-0.4752 0.32903-0.75124 0.5226-0.3608 0.25304-0.72783 0.50661-1.0125 0.71858-0.14225 0.10598-0.24735 0.1977-0.35929 0.29396-0.055396 0.048079-0.12124 0.080533-0.19598 0.16331-0.037627 0.041808-0.066893 0.087797-0.13065 0.19598-0.031356 0.054351-0.095114 0.1434-0.13065 0.2613-0.017768 0.058531-0.025346 0.10661-0.032663 0.19598-0.010452 0.088842 0.032663 0.32558 0.032663 0.32663v0.032663c0.012542 0.036582 0.05618 0.19085 0.097988 0.2613 0.045989 0.07839 0.1213 0.15009 0.16331 0.19598 0.084661 0.091978 0.14288 0.1283 0.19598 0.16331 0.10619 0.070029 0.14372 0.10985 0.19598 0.13065 0.10452 0.041808 0.1897 0.047557 0.2613 0.065325 0.14319 0.036582 0.28283 0.065587 0.45728 0.097988 0.34889 0.063757 0.80606 0.12981 1.2412 0.19598 0.32537 0.04912 0.60637 0.08675 0.88189 0.13065 0 0.06898 0.12955 0.02253 0.12555 0.09303h-0.5v1 6 1.875l1.5625-1.0312 2.4375-1.125 2.4375 1.125 1.5625 1.0312v-1.875-6-1h-0.5c0-0.071 0.12973-0.02436 0.12555-0.09303 0.27562-0.0439 0.55652-0.08153 0.88189-0.13065 0.43512-0.06585 0.89229-0.13274 1.2412-0.19598 0.17444-0.031356 0.31408-0.061406 0.45728-0.097988 0.07212-0.017769 0.15688-0.024562 0.2613-0.065325 0.05226-0.020904 0.08989-0.060622 0.19598-0.13065 0.05331-0.035537 0.11184-0.072171 0.19598-0.16331 0.04181-0.045989 0.11764-0.11779 0.16331-0.19598 0.04599-0.07839 0.09799-0.29292 0.09799-0.29396 2.09e-4 0 0.03998-0.23726 0.03266-0.32663-0.01045-0.089887-0.01489-0.13703-0.03266-0.19598-0.035539-0.1179-0.098252-0.20705-0.13065-0.2613-0.063757-0.10849-0.093023-0.15448-0.13065-0.19598-0.075255-0.083616-0.14006-0.11523-0.19598-0.16331-0.11194-0.096159-0.21693-0.18798-0.35929-0.29396-0.28461-0.21197-0.65174-0.46553-1.0125-0.71858-0.27604-0.19357-0.52004-0.3583-0.75124-0.5226 0.13692-0.24479 0.29339-0.49501 0.45728-0.7839 0.21678-0.38181 0.42226-0.76535 0.58793-1.0779 0.08257-0.15636 0.16885-0.28978 0.22864-0.42461 0.03031-0.066893 0.06559-0.12109 0.09799-0.22864 0.01568-0.053305 0.02221-0.13525 0.03266-0.2613 0.01045-0.062712 0.01986-0.13922 0-0.2613-0.01045-0.060622-0.03292-0.11215-0.06532-0.19598-0.0324-0.083616-0.16258-0.29313-0.16331-0.29396-6.27e-4 -8.361e-4 -0.15338-0.17805-0.22864-0.22864-0.07525-0.05017-0.13807-0.074993-0.19598-0.097988-0.11581-0.045989-0.19817-0.056964-0.2613-0.065325-0.12626-0.016723-0.20517 0-0.2613 0-0.11226 0.010452-0.18887 0.01803-0.2613 0.032663-0.14486 0.029266-0.28639 0.083616-0.45728 0.13065-0.34178 0.095113-0.75506 0.19671-1.1759 0.32663-0.31199 0.096159-0.58354 0.18103-0.84923 0.2613-0.10348-0.25597-0.20706-0.51628-0.32663-0.81657-0.16326-0.41014-0.31649-0.81688-0.45728-1.1432-0.070029-0.16326-0.1607-0.29334-0.22864-0.42461-0.033446-0.065848-0.066893-0.13656-0.13065-0.22864-0.031356-0.045989-0.038673-0.1086-0.13065-0.19598-0.045989-0.043898-0.12077-0.10238-0.22864-0.16331-0.054351-0.030311-0.10964-0.070812-0.19598-0.097988-0.086752-0.027175-0.32548-0.032663-0.32663-0.032663zm2e-6 1.3164c0.1375 0 1.2511 3.0962 1.375 3.1562 0.1239 0.0596 3.2265-1.0138 3.3125-0.90625 0.0857 0.1075-1.6238 2.8972-1.5938 3.0312 0.0306 0.134 2.781 1.9284 2.75 2.0625-0.0305 0.134-3.289 0.5175-3.375 0.625-0.048 0.0604 0.03275 1.1034 0.09375 2.0312h0.4375v6l-3-2-3 2v-6h0.4375c0.062-0.9278 0.14175-1.9712 0.09375-2.0312-0.0857-0.1075-3.344-0.491-3.375-0.625-0.0305-0.1341 2.72-1.9285 2.75-2.0625 0.0306-0.1341-1.6798-2.9238-1.5938-3.0312 0.0857-0.1075 3.1886 0.96625 3.3125 0.90625 0.1239-0.0597 1.2375-3.1562 1.375-3.1562zm0 5c-0.5554 0-1 0.4446-1 1s0.4446 1 1 1 1-0.4446 1-1-0.4446-1-1-1zm0 4.1562c-0.0551 0-0.49165 0.40265-0.96875 0.84375h1.9375c-0.477-0.4411-0.91375-0.84375-0.96875-0.84375z" style="fill-opacity:.5;fill:currentColor" class="ColorScheme-Background"/>
		<path id="b" d="m5 10h5.9998l2e-4 5.9999-3.0001-1.9999-2.9997 1.9999z" style="fill-opacity:.75;fill:currentColor" class="ColorScheme-Text"/>
		<path id="d" d="m8 4e-7c-0.1375 0-1.2511 3.0966-1.375 3.1563-0.1239 0.06-3.2268-1.0138-3.3125-0.9063-0.086 0.1075 1.6243 2.8972 1.5937 3.0313-0.03 0.134-2.7805 1.9284-2.75 2.0625 0.031 0.134 3.2893 0.5175 3.375 0.625 0.086 0.1074-0.2488 3.3778-0.125 3.4375 0.1239 0.06 2.4563-2.25 2.5938-2.25s2.4699 2.3096 2.5937 2.25c0.1239-0.06-0.2107-3.3301-0.125-3.4375 0.086-0.1075 3.3445-0.491 3.375-0.625 0.031-0.1341-2.7194-1.9285-2.75-2.0625-0.03-0.1341 1.6795-2.9238 1.5938-3.0313-0.086-0.1075-3.1886 0.9659-3.3125 0.9063-0.1239-0.06-1.2375-3.1563-1.375-3.1563zm0 4.9944c0.5554 0 1.0056 0.4502 1.0056 1.0056s-0.4502 1.0056-1.0056 1.0056-1.0056-0.4502-1.0056-1.0056 0.4502-1.0056 1.0056-1.0056z" style="fill-opacity:.75;fill:currentColor" class="ColorScheme-Text"/>
	</g>
</svg>
